X:782
T:Finsk Humppa
C:Georg Malmstén
R:Humppa
Z:Sven Midgren, 25 nov 08
O:Finland
S:Not efter Ullik Johansson
N:Fler låtar från [[!Finland|Finland]]...
M:2/4
L:1/8
K:Dm
AA BA | F4 | GG AG | E4 | F>F GA | GF ED | E3 ^C | A,2 A2 |
AA BA | F4 | GG AG | E4 | F>F ED | ^G>G FE | (A4 | A2) A2 |
d>A ^GA | cB AG | F2 (D2 | D)A, DE | F3 E/F/ | GF ED | E3 ^C| A,2 A2 |
d>A ^GA | cB AG | F2 (D2 | D)A, DE | F>F ED | E D2 ^C | (D4 | D)D ^CD |
E>E FG | A2 B^c | d>d dc | BA G2 | c>c cB | AG FG | (A4 | A2) A2 |
d>A ^GA | cB AG | F2 (D2 | D)A, DE | F>F ED | E D2 ^C | (D4 | D2) z2 |(:musicend:)

(:music:)
